azure-patterns/svg-big-small-meters-fill.svg

<svg xmlns="http://www.w3.org/2000/svg" viewBox="0 0 48 48">
                                
                            
    <path d="M48 12.6315V0H35.3852V5.05262H30.3326V0H0V47.9999H30.3326V42.9473H35.3852V47.9999H48V35.3684H35.3852V40.421H30.3326V25.2631H35.3852V30.3157H48V17.6842H35.3852V22.7368H30.3326V7.57894H35.3852V12.6315H48Z" fill="#0078D4"></path>
    <path d="M27.8059 17.701H2.52588V45.4315H27.8059V17.701Z" fill="#50E6FF"></path>
    <path d="M45.4737 22.7536H37.9453V27.781H45.4737V22.7536Z" fill="#50E6FF"></path>
    <path d="M45.4737 37.8947H37.9453V45.4315H45.4737V37.8947Z" fill="#50E6FF"></path>
    <path d="M45.4737 7.57892H37.9453V10.1052H45.4737V7.57892Z" fill="#50E6FF"></path>
</svg>

<svg xmlns="http://www.w3.org/2000/svg" viewBox="0 0 48 48"><path d="M48 12.632V0H35.385v5.053h-5.052V0H0v48h30.333v-5.053h5.052V48H48V35.368H35.385v5.053h-5.052V25.263h5.052v5.053H48V17.684H35.385v5.053h-5.052V7.579h5.052v5.053H48z" fill="#0078D4"/><path d="M27.806 17.701H2.526v27.73h25.28v-27.73zM45.474 22.754h-7.529v5.027h7.529v-5.027zM45.474 37.895h-7.529v7.536h7.529v-7.536zM45.474 7.579h-7.529v2.526h7.529V7.58z" fill="#50E6FF"/></svg>
